src/pug/_include/search.svg

<svg width="20" height="20" viewBox="0 0 20 20" fill="none">
<path d="M18.9062 18.0187L15.8395 14.7402C17.1993 13.1236 17.9444 11.0897 17.9444 8.97221C17.9444 4.02501 13.9194 0 8.97221 0C4.02501 0 0 4.02501 0 8.97221C0 13.9194 4.02501 17.9444 8.97221 17.9444C10.8295 17.9444 12.5993 17.3843 14.1125 16.3208L17.2194 19.6411C17.4421 19.8724 17.7417 20 18.0628 20C18.3667 20 18.6549 19.8841 18.8738 19.6735C19.3388 19.226 19.3536 18.4841 18.9062 18.0187ZM8.97221 2C12.629 2 16 5.34324 16 9C16 12.6568 12.629 16 8.97221 16C5.31545 16 2 12.629 2 8.97221C2 5.31545 5.31545 2 8.97221 2Z" fill="#4E5B67"/>
</svg>

<svg xmlns="http://www.w3.org/2000/svg" width="20" height="20" fill="none"><path d="M18.906 18.02L15.84 14.74c1.36-1.617 2.105-3.65 2.105-5.768C17.944 4.025 13.92 0 8.972 0S0 4.025 0 8.972s4.025 8.972 8.972 8.972c1.857 0 3.627-.56 5.14-1.624l3.107 3.32a1.16 1.16 0 0 0 .843.359c.304 0 .592-.116.81-.326a1.17 1.17 0 0 0 .032-1.655zM8.972 2C12.63 2 16 5.343 16 9s-3.37 7-7.028 7S2 12.63 2 8.972 5.315 2 8.972 2z" fill="#4e5b67"/></svg>
